dist/assets/images/icons/user-michael-icon.svg

<svg width="37" height="37" viewBox="0 0 37 37" fill="none" xmlns="http://www.w3.org/2000/svg">
<path d="M37 18.5C37 8.30445 28.6956 0 18.5 0C8.30445 0 0 8.30445 0 18.5C0 24.6256 3.00111 30.0933 7.64667 33.4644C7.72889 33.5467 7.81111 33.5878 7.89333 33.6289C10.8944 35.7667 14.5533 37 18.5 37C22.4467 37 26.1056 35.7667 29.1067 33.6289C29.1889 33.5878 29.2711 33.5056 29.3533 33.4644C33.9989 30.0933 37 24.6256 37 18.5ZM9.04445 32.4367V31.6556C9.04445 26.4344 13.2789 22.2 18.5 22.2C23.7211 22.2 27.9556 26.4344 27.9556 31.6556V32.4367C25.2422 34.2867 21.9944 35.3556 18.5 35.3556C15.0056 35.3556 11.7578 34.2867 9.04445 32.4367ZM13.5667 15.6222C13.5667 12.9089 15.7867 10.6889 18.5 10.6889C21.2133 10.6889 23.4333 12.9089 23.4333 15.6222C23.4333 18.3356 21.2133 20.5556 18.5 20.5556C15.7867 20.5556 13.5667 18.3356 13.5667 15.6222ZM29.6 31.1622C29.3944 26.4756 26.3111 22.57 22.0767 21.1311C23.8856 19.98 25.0778 17.9244 25.0778 15.6222C25.0778 12.0044 22.1178 9.04445 18.5 9.04445C14.8822 9.04445 11.9222 12.0044 11.9222 15.6222C11.9222 17.9244 13.1144 19.98 14.9233 21.1311C10.6889 22.57 7.60556 26.5167 7.4 31.1622C3.86444 28.0789 1.64444 23.5567 1.64444 18.5C1.64444 9.20889 9.20889 1.64444 18.5 1.64444C27.7911 1.64444 35.3556 9.20889 35.3556 18.5C35.3556 23.5567 33.1356 28.0789 29.6 31.1622Z" fill="#767474"/>
</svg>

<svg width="37" height="37" fill="none" xmlns="http://www.w3.org/2000/svg"><path d="M37 18.5C37 8.304 28.696 0 18.5 0S0 8.304 0 18.5c0 6.126 3.001 11.593 7.647 14.964.082.083.164.124.246.165A18.198 18.198 0 0018.5 37c3.947 0 7.606-1.233 10.607-3.371.082-.041.164-.123.246-.165C34 30.094 37 24.626 37 18.5zM9.044 32.437v-.781c0-5.222 4.235-9.456 9.456-9.456 5.221 0 9.456 4.234 9.456 9.456v.78a16.708 16.708 0 01-9.456 2.92 16.708 16.708 0 01-9.456-2.92zm4.523-16.815A4.948 4.948 0 0118.5 10.69a4.948 4.948 0 014.933 4.933 4.948 4.948 0 01-4.933 4.934 4.948 4.948 0 01-4.933-4.934zM29.6 31.162a11.102 11.102 0 00-7.523-10.03 6.532 6.532 0 003-5.51c0-3.618-2.96-6.578-6.577-6.578-3.618 0-6.578 2.96-6.578 6.578a6.532 6.532 0 003.001 5.51C10.69 22.57 7.606 26.516 7.4 31.161A16.733 16.733 0 011.644 18.5C1.644 9.209 9.21 1.644 18.5 1.644S35.356 9.21 35.356 18.5A16.73 16.73 0 0129.6 31.162z" fill="#767474"/></svg>
